!!!OTL: JETZT DANZT HANNEMANN
!!!ARE: Europa, Mitteleuropa, Deutschland, Mark
!!!SCT: E1050
!!!YEM: Copyright 1995, estate of Helmut Schaffrath.
**kern
*ICvox
*Ivox
*M2/4
*k[]
*C:
=1
{4c
4e
=2
8.g
16g
4g}
=3
{4ee
4cc
=4
8.g
16g
4g}
=5
{4c
4e
=6
8.g
16g
4g}
=7
{4g
8f
8e
=8
8f
8d
4c}
=9
{4cc
8b
8a
=10
8a
8g
8g}
{8e
=11
8g
8f
8f
8d
=12
8f
8e
8e
8r}
=13
{4cc
8b
8a
=14
8a
8g
8g}
{8e
=15
8g
8f
8f
8d
=16
4c
4r}
==
!!!AGN: Tanz - Lied
!!!ONB: ESAC (Essen Associative Code) Database: ERK3
!!!AMT: simple duple
!!!AIN: vox
!!!EED: Helmut Schaffrath
!!!EEV: 1.0
*-
